img/vk.svg

<svg width="20" height="11" viewBox="0 0 20 11" fill="none" xmlns="http://www.w3.org/2000/svg">
<path d="M10.8932 11C4.05991 11 0.162379 6.87089 0 0H3.42284C3.53527 5.04305 6.05865 7.17918 8.05738 7.6196V0H11.2805V4.34932C13.2542 4.16215 15.3277 2.18019 16.0273 0H19.2503C18.7132 2.68668 16.4646 4.66866 14.8656 5.48347C16.4646 6.14413 19.0256 7.87287 20 11H16.4521C15.6901 8.90792 13.7914 7.28927 11.2805 7.06906V11H10.8932Z" fill="white"/>
</svg>

<svg width="20" height="11" fill="none" xmlns="http://www.w3.org/2000/svg"><path d="M10.893 11C4.06 11 .163 6.87 0 0h3.423c.112 5.043 2.636 7.18 4.634 7.62V0h3.223v4.35c1.974-.188 4.048-2.17 4.747-4.35h3.223c-.537 2.687-2.785 4.669-4.384 5.483 1.599.661 4.16 2.39 5.134 5.517h-3.548c-.762-2.092-2.66-3.71-5.172-3.93V11h-.387Z" fill="#fff"/></svg>
